src/microsoft.svg

<svg xmlns="http://www.w3.org/2000/svg" fill="none" viewBox="0 0 24 24"><path fill="#FFB900" d="M22 13h-9v9h9v-9Z"/><path fill="#01A4EF" d="M11 13H2v9h9v-9Z"/><path fill="#7FBA00" d="M22 2h-9v9h9V2Z"/><path fill="#F25022" d="M11 2H2v9h9V2Z"/></svg>

<svg viewBox="0 0 24 24" fill="none" xmlns="http://www.w3.org/2000/svg">
<path d="M22 13H13V22H22V13Z" fill="#FFB900"/>
<path d="M11 13H2V22H11V13Z" fill="#01A4EF"/>
<path d="M22 2H13V11H22V2Z" fill="#7FBA00"/>
<path d="M11 2H2V11H11V2Z" fill="#F25022"/>
</svg>
